svg/fluentui-system-icons/ic_fluent_globe_clock_16_regular.svg

<svg width="16" height="16" viewBox="0 0 16 16" fill="none" xmlns="http://www.w3.org/2000/svg">
<path d="M2 8C2 10.6109 3.66761 12.8322 5.9958 13.6571C5.68225 13.2106 5.43341 12.7153 5.26291 12.185C4.77615 11.866 4.34841 11.4643 3.99963 11H5.02242C5.00758 10.8353 5 10.6685 5 10.5C5 10.3315 5.00758 10.1647 5.02242 10H3.41604C3.14845 9.38754 3 8.7111 3 8C3 7.2889 3.14845 6.61246 3.41604 6H5.16299C5.05694 6.6275 5 7.30146 5 8C5 8.51697 5.03119 9.02048 5.09038 9.50165C5.23826 8.69523 5.56202 7.9503 6.02043 7.3081C6.04782 6.84826 6.10202 6.40964 6.17866 6H7.33692C8.23159 5.36997 9.32259 5 10.5 5C11.6748 5 12.7635 5.36833 13.6571 5.9958C12.8322 3.66761 10.6109 2 8 2C4.68629 2 2 4.68629 2 8ZM8 3C8.37372 3 8.87543 3.35608 9.31258 4.31781C9.4073 4.52619 9.49448 4.75446 9.57265 5H6.42735C6.50552 4.75446 6.5927 4.52619 6.68742 4.31781C7.12457 3.35608 7.62628 3 8 3ZM5.77705 3.90401C5.62614 4.23601 5.49428 4.6038 5.38411 5H3.99963C4.52341 4.30269 5.22525 3.74677 6.03766 3.39978C5.94287 3.56117 5.85596 3.7304 5.77705 3.90401ZM9.96234 3.39978C10.7747 3.74677 11.4766 4.30269 12.0004 5H10.6159C10.5057 4.6038 10.3739 4.23601 10.2229 3.90401C10.144 3.7304 10.0571 3.56117 9.96234 3.39978ZM15 10.5C15 12.9853 12.9853 15 10.5 15C8.01472 15 6 12.9853 6 10.5C6 8.01472 8.01472 6 10.5 6C12.9853 6 15 8.01472 15 10.5ZM10.5 8C10.2239 8 10 8.22386 10 8.5V10.5C10 10.7761 10.2239 11 10.5 11H12C12.2761 11 12.5 10.7761 12.5 10.5C12.5 10.2239 12.2761 10 12 10H11V8.5C11 8.22386 10.7761 8 10.5 8Z" fill="#212121"/>
</svg>

<svg xmlns="http://www.w3.org/2000/svg" width="16" height="16"><path d="M2 8a6.002 6.002 0 0 0 3.996 5.657 5.48 5.48 0 0 1-.733-1.472A5.028 5.028 0 0 1 4 11h1.022a5.571 5.571 0 0 1 0-1H3.416A4.983 4.983 0 0 1 3 8c0-.711.148-1.388.416-2h1.747A12.055 12.055 0 0 0 5 8c0 .517.031 1.02.09 1.502a5.472 5.472 0 0 1 .93-2.194c.028-.46.082-.898.159-1.308h1.158c.895-.63 1.986-1 3.163-1 1.175 0 2.264.368 3.157.996A6 6 0 0 0 2 8Zm6-5c.374 0 .875.356 1.313 1.318.094.208.181.436.26.682H6.427a6.19 6.19 0 0 1 .26-.682C7.125 3.356 7.627 3 8 3Zm-2.223.904c-.15.332-.283.7-.393 1.096H4a5.017 5.017 0 0 1 2.038-1.6 5.45 5.45 0 0 0-.261.504ZM9.962 3.4A5.018 5.018 0 0 1 12 5h-1.384a7.526 7.526 0 0 0-.393-1.096 5.454 5.454 0 0 0-.26-.504ZM15 10.5a4.5 4.5 0 1 1-9 0 4.5 4.5 0 0 1 9 0ZM10.5 8a.5.5 0 0 0-.5.5v2a.5.5 0 0 0 .5.5H12a.5.5 0 0 0 0-1h-1V8.5a.5.5 0 0 0-.5-.5Z"/></svg>
